X: 1
T: The Fairy
R: slip jig
M: 9/8
L: 1/8
K: Ador
|:A2G Add Add|ABA AFA fAg|A2G Add ded|cAG AAG FDD:|
|:a2g fab afd|afd dfa baf|afa baf afd|cAG AAG FDD:|


Tune 2743	Setting 15978

